public/images/li-decoration.svg

<svg width="19" height="19" viewBox="0 0 19 19" fill="none" xmlns="http://www.w3.org/2000/svg">
<path fill-rule="evenodd" clip-rule="evenodd" d="M12.7133 16.4944C17.4998 14.294 18.0481 8.33229 17.4102 6.13568C17.1424 5.21347 14.5697 2.16173 8.06745 4.12597C2.86563 5.69735 1.74618 8.60652 1.83669 9.86468C2.45202 12.4373 3.4987 13.8585 6.32296 15.8391C8.58238 17.4237 11.4231 17.0875 12.7133 16.4944ZM11.942 15.3131C13.7554 14.8221 15.4387 12.0477 15.8392 10.7049C12.9655 13.8128 7.98286 13.9267 5.85074 13.5952C7.54673 15.1365 9.28038 16.0336 11.942 15.3131ZM15.6361 6.13567C16.5207 7.0464 17.1326 9.23505 11.9259 11.5938C8.64145 12.7337 4.71058 13.1729 3.45514 10.3915C3.07492 9.50142 3.44968 7.30361 7.99054 5.6334C12.5314 3.96319 14.7901 5.2648 15.6361 6.13567Z" fill="#153862"/>
</svg>

<svg width="19" height="19" fill="none" xmlns="http://www.w3.org/2000/svg"><path fill-rule="evenodd" clip-rule="evenodd" d="M12.713 16.494c4.787-2.2 5.335-8.162 4.697-10.358-.268-.923-2.84-3.974-9.343-2.01-5.201 1.571-6.32 4.48-6.23 5.739.615 2.572 1.662 3.993 4.486 5.974 2.26 1.585 5.1 1.248 6.39.655zm-.771-1.18c1.813-.492 3.497-3.266 3.897-4.61-2.873 3.109-7.856 3.223-9.988 2.891 1.696 1.541 3.43 2.439 6.091 1.718zm3.694-9.178c.885.91 1.497 3.099-3.71 5.458-3.285 1.14-7.215 1.579-8.47-1.202-.381-.89-.006-3.088 4.535-4.759 4.54-1.67 6.8-.368 7.645.503z" fill="#153862"/></svg>
